X: 99
T: Scotch Contention
T: Longways for as many as will.
%R: hornpipe, reel
B: Daniel Wright "Wright's Compleat Collection of Celebrated Country Dances" 1740 p.50
S: http://library.efdss.org/cgi-bin/dancebooks.cgi
Z: 2014 John Chambers <jc:trillian.mit.edu>
M: 2/4
L: 1/16
K: D
% - - - - - - - - - - - - - - - - - - - - - - - - -
f2 |\
d3ef3g | d3BA3d | B3de3g | EEE2E3g |\
d3ef3g | d3BA3d | B3dA3F | DDD2D2 |]
B2 |\
A3DA3F | A3DA3F | B3EB3G | B3EB3G |\
A3DA3F | (A2B2)(d2f2) | (d2B2)(A2F2) | DDD2D2 |]
f2 |\
a3ba3f | a3ba3f | (g2e2)(b2e2) | (g2e2)(b2e2) |\
a3ba3f | a3ba3f | g3ea3f | ddd2d2 |]
% - - - - - - - - - - - - - - - - - - - - - - - - -
%%begintext align
%% The 1st Cu. lead thro' the 2d Cu. and cast up again, then
%% the 1st Wo. turn 2d Man, then cross over below the 2d cu.
%% Then below the 3d Cu. and lead through both Cu. & cast of,
%% Then the Wo. fall back & the Men follow them & turn
%% single, then Men fall back & the Wo. follow them & turn
%% single clap Hands Side, then all 4 single, then clap
%% Hands with your Partners, and cast off.
%%endtext
% - - - - - - - - - - - - - - - - - - - - - - - - -
%%sep 2 4 300
